!!!OTL: DIE CIGARREN UND DIE MENSCHEN
!!!ARE: Europa, Mitteleuropa, Deutschland, Thueringen
!!!SCT: B0650
!!!YEM: Copyright 1995, estate of Helmut Schaffrath.
**kern
*ICvox
*Ivox
*M2/4
*k[f#]
*G:
{8.g
16b
=1
8ee
8dd
8.g
16g
=2
8a
8a}
{8.a
16a
=3
8.ee
16dd
8.a
16a
=4
4b}
{8.g
16b
=5
8ee
8dd
8.g
16g
=6
8a
8a}
{8.a
16a
=7
8ee
8dd
8.cc
16a
=8
4g}
{8.b
16b
=9
8b
8b
8b
8g
=10
8e
8e}
{8.e
16e
=11
8a
8a
8e
8f#
=12
4d}
{8.g
16b
=13
8ee
8dd
8g
8g
=14
8a
8a}
{8.a
16a
=15
8ee
8dd
8cc
8f#
=16
4g}
==
!!!AGN: Moral -, Lob - Lied auf den Tabak
!!!ONB: ESAC (Essen Associative Code) Database: BOEHME
!!!AMT: simple duple
!!!AIN: vox
!!!EED: Helmut Schaffrath
!!!EEV: 1.0
*-
